fs/database_window_20_filled.svg

<svg viewBox="0 0 20 20" fill="none" xmlns="http://www.w3.org/2000/svg" height="1em" width="1em">
  <path d="M10 8C13.3137 8 16 6.65685 16 5C16 3.34315 13.3137 2 10 2C6.68629 2 4 3.34315 4 5C4 6.65685 6.68629 8 10 8ZM14.6899 8.01575C15.1593 7.78102 15.6173 7.48234 16 7.12029V9H11.5C10.1193 9 9 10.1193 9 11.5V17.5C9 17.6578 9.01463 17.8123 9.04261 17.962C6.18396 17.7328 4 16.4939 4 15V7.12029C4.38273 7.48234 4.8407 7.78102 5.31015 8.01575C6.56205 8.6417 8.22156 9 10 9C11.7784 9 13.4379 8.6417 14.6899 8.01575ZM10 11.5C10 10.6716 10.6716 10 11.5 10H17.5C18.3284 10 19 10.6716 19 11.5V12H10V11.5ZM10 13H19V17.5C19 18.3284 18.3284 19 17.5 19H11.5C10.6716 19 10 18.3284 10 17.5V13Z" fill="#212121"/>
</svg>

<svg viewBox="0 0 20 20" fill="none" xmlns="http://www.w3.org/2000/svg" height="1em" width="1em">
  <path d="M10 8c3.314 0 6-1.343 6-3s-2.686-3-6-3-6 1.343-6 3 2.686 3 6 3Zm4.69.016c.47-.235.927-.534 1.31-.896V9h-4.5A2.5 2.5 0 0 0 9 11.5v6c0 .158.015.312.043.462C6.184 17.732 4 16.494 4 15V7.12c.383.362.84.661 1.31.896C6.562 8.642 8.222 9 10 9c1.778 0 3.438-.358 4.69-.984ZM10 11.5a1.5 1.5 0 0 1 1.5-1.5h6a1.5 1.5 0 0 1 1.5 1.5v.5h-9v-.5Zm0 1.5h9v4.5a1.5 1.5 0 0 1-1.5 1.5h-6a1.5 1.5 0 0 1-1.5-1.5V13Z" fill="#212121"/>
</svg>
